Numix-GalliumOS/22/panel/copy-update.svg

<?xml version="1.0" encoding="UTF-8" standalone="no"?>
<!-- Generator: Adobe Illustrator 15.1.0, SVG Export Plug-In . SVG Version: 6.00 Build 0)  -->

<svg
   xmlns:dc="http://purl.org/dc/elements/1.1/"
   xmlns:cc="http://creativecommons.org/ns#"
   xmlns:rdf="http://www.w3.org/1999/02/22-rdf-syntax-ns#"
   xmlns:svg="http://www.w3.org/2000/svg"
   xmlns="http://www.w3.org/2000/svg"
   xmlns:sodipodi="http://sodipodi.sourceforge.net/DTD/sodipodi-0.dtd"
   xmlns:inkscape="http://www.inkscape.org/namespaces/inkscape"
   version="1.1"
   id="Layer_1"
   x="0px"
   y="0px"
   width="22"
   height="22"
   viewBox="0 0 22 22"
   enable-background="new 0 0 24 24"
   xml:space="preserve"
   inkscape:version="0.91 r"
   sodipodi:docname="copy-update.svg"><metadata
     id="metadata29"><rdf:RDF><cc:Work
         rdf:about=""><dc:format>image/svg+xml</dc:format><dc:type
           rdf:resource="http://purl.org/dc/dcmitype/StillImage" /><dc:title /></cc:Work></rdf:RDF></metadata><defs
     id="defs27" /><sodipodi:namedview
     pagecolor="#ffffff"
     bordercolor="#666666"
     borderopacity="1"
     objecttolerance="10"
     gridtolerance="10"
     guidetolerance="10"
     inkscape:pageopacity="0"
     inkscape:pageshadow="2"
     inkscape:window-width="1366"
     inkscape:window-height="747"
     id="namedview25"
     showgrid="true"
     inkscape:zoom="27.812867"
     inkscape:cx="8.5826659"
     inkscape:cy="10.028633"
     inkscape:window-x="0"
     inkscape:window-y="21"
     inkscape:window-maximized="1"
     inkscape:current-layer="Layer_1"><inkscape:grid
       type="xygrid"
       id="grid4199" /></sodipodi:namedview><g
     style="fill:#ececec;fill-opacity:1"
     id="g15"
     transform="matrix(0.88289963,0,0,0.88294066,0.40520444,0.73537336)"><path
       style="fill:#ececec;fill-opacity:1"
       d="M 19.980469 1.5 L 14.560547 8.1054688 L 16.439453 9.8125 L 20.5 1.8710938 L 19.980469 1.5 z M 5.0625 6.7207031 L 1.5 9.8125 L 1.5 11 L 5.0625 9.8125 L 7 17.5625 L 7 15.5 L 9 15.5 L 9 14.5 L 7 14.5 L 7 9.5 L 7.0878906 9.5 L 6.25 7.4355469 L 5.0625 6.7207031 z M 14 9.5625 L 14 10.304688 L 14.560547 9.8125 C 14.560547 9.8125 14.176272 9.6451852 14 9.5625 z M 15.75 11 L 14 12.398438 L 14 15.5 L 16 15.5 L 16 19.248047 L 20.140625 20.5 L 20.466797 20.5 L 20.5 20.230469 L 16.9375 12.1875 L 15.75 11 z "
       transform="matrix(1.1326316,0,0,1.1325789,-0.45894734,-0.83286838)"
       id="polygon17" /></g><g
     id="g4223" /><g
     id="g4219"
     transform="translate(0,12)"><path
       inkscape:connector-curvature="0"
       id="path4493"
       d="M 10.5,-3.9999998 10.5,-2 l 2,0 0,-1.9999998 z"
       style="fill:#ececec;fill-opacity:1;stroke:none;stroke-width:1px;stroke-linecap:butt;stroke-linejoin:miter;stroke-opacity:1" /><path
       inkscape:connector-curvature="0"
       id="path3983"
       d="m 8.5,7 0,-2 2,0 0,-4 -2,0 0,-2 4,0 0,6 2,0 0,2 z"
       style="fill:#ececec;fill-opacity:1;stroke:none;stroke-width:1px;stroke-linecap:butt;stroke-linejoin:miter;stroke-opacity:1" /></g></svg>

<!-- Generator: Adobe Illustrator 15.1.0, SVG Export Plug-In . SVG Version: 6.00 Build 0)  -->
<svg xmlns="http://www.w3.org/2000/svg" viewBox="0 0 22 22" style="enable-background:new 0 0 24 24">
 <g transform="matrix(0.88289963,0,0,0.88294066,0.40520444,0.73537336)" style="fill:#ececec;fill-opacity:1">
  <path d="m 19.98 1.5 l -5.42 6.605 l 1.879 1.707 l 4.061 -7.941 l -0.52 -0.371 z m -14.918 5.221 l -3.563 3.092 l 0 1.188 l 3.563 -1.188 l 1.938 7.75 l 0 -2.063 l 2 0 l 0 -1 l -2 0 l 0 -5 l 0.088 0 l -0.838 -2.064 l -1.188 -0.715 z m 8.938 2.842 l 0 0.742 l 0.561 -0.492 c 0 0 -0.384 -0.167 -0.561 -0.25 z m 1.75 1.438 l -1.75 1.398 l 0 3.102 l 2 0 l 0 3.748 l 4.141 1.252 l 0.326 0 l 0.033 -0.27 l -3.563 -8.04 l -1.188 -1.188 z" transform="matrix(1.1326316,0,0,1.1325789,-0.45894734,-0.83286838)"/>
 </g>
 <g transform="translate(0,12)">
  <path d="m 10.5 -4 0 2 l 2 0 0 -2 z" style="fill:#ececec;fill-opacity:1;stroke:none"/>
  <path d="m 8.5 7 0 -2 2 0 0 -4 -2 0 0 -2 4 0 0 6 2 0 0 2 z" style="fill:#ececec;fill-opacity:1;stroke:none"/>
 </g>
</svg>
